shhhhhhh.svg

<svg width="258" height="224" viewBox="0 0 258 224" fill="none" xmlns="http://www.w3.org/2000/svg">
<g clip-path="url(#clip0_5_365)">
<path d="M240.545 224C240.39 224 240.234 224 240.079 224C217.712 223.399 201.694 211.298 194.976 189.889C190.238 174.744 190.704 157.64 191.112 142.533C191.248 137.646 191.364 133.031 191.267 129.211C191.015 113.677 180.239 112.494 176.938 112.494C173.637 112.494 162.92 113.677 162.609 128.939V171.369C162.609 181.007 154.784 188.822 145.135 188.822C135.485 188.822 127.66 181.007 127.66 171.369V128.493C128.204 95.0608 152.862 77.5884 176.919 77.5884C200.995 77.5884 225.633 95.0802 226.197 128.493C226.313 133.07 226.177 138.131 226.022 143.483C225.692 155.856 225.303 169.876 228.313 179.475C230.565 186.67 233.516 188.919 240.992 189.113C250.641 189.365 258.252 197.394 258 207.032C257.748 216.515 249.981 224.019 240.545 224.019V224Z" fill="white"/>
<path d="M145.135 223.709C135.485 223.709 127.66 215.894 127.66 206.256V128.687C127.66 119.049 135.485 111.234 145.135 111.234C154.784 111.234 162.609 119.049 162.609 128.687V206.256C162.609 215.894 154.784 223.709 145.135 223.709Z" fill="white"/>
<path d="M49.2585 223.515C25.202 223.515 0.543687 206.023 3.90352e-05 172.611C-0.155289 162.973 7.53345 155.041 17.1832 154.867C17.2803 154.867 17.3774 154.867 17.4745 154.867C26.9883 154.867 34.7935 162.488 34.9489 172.029C35.2013 187.407 45.9772 188.609 49.2585 188.609C52.5398 188.609 63.2768 187.426 63.5875 172.164V50.9047C64.1506 17.4918 88.7895 0 112.846 0C136.922 0 161.561 17.4918 162.124 50.9047C162.279 60.5426 154.59 68.4935 144.941 68.6486C135.33 68.8619 127.33 61.1244 127.175 51.4864C126.923 36.1084 116.127 34.9061 112.846 34.9061C109.565 34.9061 98.847 36.089 98.5363 51.3701V172.611C97.9927 206.023 73.3343 223.515 49.2585 223.515Z" fill="white"/>
</g>
<defs>
<clipPath id="clip0_5_365">
<rect width="258" height="224" fill="white"/>
</clipPath>
</defs>
</svg>

<?xml version="1.0" encoding="UTF-8"?>
<svg fill="none" viewBox="0 0 258 224" xmlns="http://www.w3.org/2000/svg">
<g clip-path="url(#a)" fill="#fff">
<path d="m240.54 224h-0.466c-22.367-0.601-38.385-12.702-45.103-34.111-4.738-15.145-4.272-32.249-3.864-47.356 0.136-4.887 0.252-9.502 0.155-13.322-0.252-15.534-11.028-16.717-14.329-16.717s-14.018 1.183-14.329 16.445v42.43c0 9.638-7.825 17.453-17.474 17.453-9.65 0-17.475-7.815-17.475-17.453v-42.876c0.544-33.432 25.202-50.905 49.259-50.905 24.076 0 48.714 17.492 49.278 50.905 0.116 4.577-0.02 9.638-0.175 14.99-0.33 12.373-0.719 26.393 2.291 35.992 2.252 7.195 5.203 9.444 12.679 9.638 9.649 0.252 17.26 8.281 17.008 17.919-0.252 9.483-8.019 16.987-17.455 16.987v-0.019z"/>
<path d="m145.14 223.71c-9.65 0-17.475-7.815-17.475-17.453v-77.569c0-9.638 7.825-17.453 17.475-17.453 9.649 0 17.474 7.815 17.474 17.453v77.569c0 9.638-7.825 17.453-17.474 17.453z"/>
<path d="m49.258 223.52c-24.056 0-48.715-17.492-49.258-50.904-0.15533-9.638 7.5334-17.57 17.183-17.744h0.2913c9.5138 0 17.319 7.621 17.474 17.162 0.2524 15.378 11.028 16.58 14.31 16.58s14.018-1.183 14.329-16.445v-121.26c0.5631-33.413 25.202-50.905 49.258-50.905 24.076 0 48.715 17.492 49.278 50.905 0.155 9.6379-7.534 17.589-17.183 17.744-9.611 0.2133-17.611-7.5242-17.766-17.162-0.252-15.378-11.048-16.58-14.329-16.58s-13.999 1.1829-14.31 16.464v121.24c-0.5436 33.412-25.202 50.904-49.278 50.904z"/>
</g>
<defs>
<clipPath id="a">
<rect width="258" height="224" fill="#fff"/>
</clipPath>
</defs>
</svg>
